src/icons/outline/symbols/external-integration.svg

<svg width="24" height="24" viewBox="0 0 24 24" fill="none" xmlns="http://www.w3.org/2000/svg">
<g clip-path="url(#clip0_4549_399)">
<path fill-rule="evenodd" clip-rule="evenodd" d="M21.207 6.61035C21.6404 6.6105 21.9998 6.98385 22 7.43457C22 7.88548 21.6405 8.25962 21.207 8.25977H20.8477V11.6592C20.8476 15.993 17.4521 19.5243 13.2852 19.5244H12.7881V22.1748C12.7881 22.6257 12.4286 22.9998 11.9951 23C11.5615 23 11.2012 22.6258 11.2012 22.1748V19.5244H10.7148C6.54785 19.5243 3.15245 15.993 3.15234 11.6592V8.25977H2.79297C2.35945 8.25961 2 7.88548 2 7.43457C2.00022 6.98385 2.35959 6.6105 2.79297 6.61035H21.207ZM4.73926 11.6592C4.73936 15.08 7.41512 17.874 10.7148 17.874H13.2852C16.5743 17.874 19.2606 15.091 19.2607 11.6592V8.25977H4.73926V11.6592Z" fill="#3C3B44"/>
<path d="M8.54688 1C8.98041 1.00013 9.33984 1.37427 9.33984 1.8252V4.82812C9.33978 5.27899 8.98037 5.65319 8.54688 5.65332C8.11328 5.65332 7.75397 5.27907 7.75391 4.82812V1.8252C7.75391 1.3742 8.11324 1 8.54688 1Z" fill="#3C3B44"/>
<path d="M15.4531 1C15.8868 1 16.2471 1.3742 16.2471 1.8252V4.82812C16.247 5.27907 15.8867 5.65332 15.4531 5.65332C15.0196 5.65317 14.6602 5.27898 14.6602 4.82812V1.8252C14.6602 1.37429 15.0196 1.00015 15.4531 1Z" fill="#3C3B44"/>
</g>
<defs>
<clipPath id="clip0_4549_399">
<rect width="24" height="24" fill="white"/>
</clipPath>
</defs>
</svg>

<svg xmlns="http://www.w3.org/2000/svg" width="24" height="24" fill="none" viewBox="0 0 24 24"><g fill="currentColor" clip-path="url(#a)"><path fill-rule="evenodd" d="M21.207 6.61c.433 0 .793.374.793.825s-.36.825-.793.825h-.36v3.4c0 4.333-3.395 7.864-7.562 7.864h-.497v2.65c0 .452-.36.826-.793.826s-.794-.374-.794-.825v-2.65h-.486c-4.167 0-7.563-3.532-7.563-7.866v-3.4h-.359C2.359 8.26 2 7.886 2 7.436c0-.451.36-.824.793-.825zM4.739 11.66c0 3.42 2.676 6.214 5.976 6.214h2.57c3.29 0 5.976-2.783 5.976-6.215v-3.4H4.739z" clip-rule="evenodd"/><path d="M8.547 1c.433 0 .793.374.793.825v3.003c0 .451-.36.825-.793.825s-.793-.374-.793-.825V1.825c0-.45.36-.825.793-.825m6.906 0c.434 0 .794.374.794.825v3.003c0 .451-.36.825-.794.825-.433 0-.793-.374-.793-.825V1.825c0-.45.36-.825.793-.825"/></g><defs><clipPath id="a"><path fill="currentColor" d="M0 0h24v24H0z"/></clipPath></defs></svg>
